icons/src/scalable/default/status/microphone-hardware-disabled-symbolic.svg

<?xml version="1.0" encoding="UTF-8" standalone="no"?>
<svg
   version="1.1"
   viewBox="0 0 16 16"
   id="svg20"
   sodipodi:docname="microphone-hardware-disabled-symbolic.svg"
   inkscape:version="1.1.2 (0a00cf5339, 2022-02-04)"
   xmlns:inkscape="http://www.inkscape.org/namespaces/inkscape"
   xmlns:sodipodi="http://sodipodi.sourceforge.net/DTD/sodipodi-0.dtd"
   xmlns="http://www.w3.org/2000/svg"
   xmlns:svg="http://www.w3.org/2000/svg">
  <defs
     id="defs24">
    <inkscape:path-effect
       effect="fillet_chamfer"
       id="path-effect135"
       is_visible="true"
       lpeversion="1"
       satellites_param="F,0,0,1,0,1,0,1 @ F,0,0,1,0,1,0,1 @ F,0,0,1,0,1,0,1 @ F,0,0,1,0,1,0,1"
       unit="px"
       method="auto"
       mode="F"
       radius="1"
       chamfer_steps="1"
       flexible="false"
       use_knot_distance="true"
       apply_no_radius="true"
       apply_with_radius="true"
       only_selected="false"
       hide_knots="false" />
    <inkscape:path-effect
       effect="fillet_chamfer"
       id="path-effect129"
       is_visible="true"
       lpeversion="1"
       satellites_param="F,0,0,1,0,0.5,0,1 @ F,0,0,1,0,0.5,0,1 @ F,0,0,1,0,0.5,0,1 @ F,0,0,1,0,0.5,0,1"
       unit="px"
       method="auto"
       mode="F"
       radius="0.5"
       chamfer_steps="1"
       flexible="false"
       use_knot_distance="true"
       apply_no_radius="true"
       apply_with_radius="true"
       only_selected="false"
       hide_knots="false" />
  </defs>
  <sodipodi:namedview
     id="namedview22"
     pagecolor="#ffffff"
     bordercolor="#666666"
     borderopacity="1.0"
     inkscape:pageshadow="2"
     inkscape:pageopacity="0.0"
     inkscape:pagecheckerboard="0"
     showgrid="false"
     inkscape:zoom="47.5625"
     inkscape:cx="8"
     inkscape:cy="8"
     inkscape:window-width="1904"
     inkscape:window-height="1011"
     inkscape:window-x="0"
     inkscape:window-y="32"
     inkscape:window-maximized="1"
     inkscape:current-layer="svg20" />
  <path
     x="1"
     y="8"
     width="13"
     height="1"
     fill="#bebebe"
     fill-rule="evenodd"
     stroke-linecap="round"
     stroke-width="2.82843"
     id="rect18"
     sodipodi:type="rect"
     inkscape:path-effect="#path-effect129"
     d="m 1.5,8 h 12 A 0.5,0.5 45 0 1 14,8.5 0.5,0.5 135 0 1 13.5,9 H 1.5 A 0.5,0.5 45 0 1 1,8.5 0.5,0.5 135 0 1 1.5,8 Z" />
  <path
     id="path6"
     style="fill:#bebebe;stroke-width:0.106381"
     d="M 7.5 0 C 6.8124759 0 6.2239843 0.30180478 5.734375 0.90429688 C 5.2447658 1.506789 5 2.2299685 5 3.0761719 L 5 7 L 10 7 L 10 3.0761719 C 10 2.2299685 9.7553301 1.506907 9.265625 0.90429688 C 8.7761116 0.30180477 8.1875241 -1.4802974e-16 7.5 0 z M 5 8 C 5 8.8462034 5.2448617 9.571454 5.734375 10.173828 C 6.2238884 10.776202 6.8124759 11.076172 7.5 11.076172 C 8.1875241 11.076172 8.7761116 10.776202 9.265625 10.173828 C 9.7551383 9.571454 10 8.8462034 10 8 L 5 8 z " />
  <path
     id="path8"
     style="fill:#bebebe;stroke-width:0.106381"
     d="M 3.5 6.1542969 C 3.3645088 6.1542969 3.2473949 6.2141406 3.1484375 6.3359375 C 3.0494795 6.4577342 3 6.6028871 3 6.7695312 L 3 7 L 4 7 L 4 6.7695312 C 4 6.602887 3.9505197 6.4577342 3.8515625 6.3359375 C 3.7526051 6.2141409 3.6354911 6.1542969 3.5 6.1542969 z M 11.5 6.1542969 C 11.364605 6.1542969 11.247395 6.2141406 11.148438 6.3359375 C 11.049478 6.4577342 11 6.6028871 11 6.7695312 L 11 7 L 12 7 L 12 6.7695312 C 12 6.602887 11.95061 6.4578522 11.851562 6.3359375 C 11.752792 6.2141409 11.635395 6.1542969 11.5 6.1542969 z M 3 8 C 3 9.4167121 3.384177 10.649249 4.1523438 11.697266 C 4.9205106 12.745284 5.8697563 13.34622 7 13.5 L 7 14.769531 L 5 14.769531 C 4.8646047 14.769531 4.747395 14.829377 4.6484375 14.951172 C 4.5494805 15.072968 4.5 15.218122 4.5 15.384766 C 4.5 15.551292 4.5494803 15.696681 4.6484375 15.818359 C 4.7473955 15.940156 4.8646047 16 5 16 L 10 16 C 10.135396 16 10.252797 15.940152 10.351562 15.818359 C 10.450613 15.696681 10.5 15.551292 10.5 15.384766 C 10.5 15.218122 10.450621 15.072968 10.351562 14.951172 C 10.252792 14.829375 10.135396 14.769531 10 14.769531 L 8 14.769531 L 8 13.5 C 9.1300519 13.34622 10.079393 12.745284 10.847656 11.697266 C 11.615919 10.649249 12 9.4167121 12 8 L 11 8 C 11 9.185983 10.657495 10.199953 9.9726562 11.042969 C 9.2879128 11.885986 8.4635886 12.308594 7.5 12.308594 C 6.5364114 12.308594 5.7122789 11.885986 5.0273438 11.042969 C 4.3425044 10.200189 4 9.185983 4 8 L 3 8 z " />
</svg>

<svg version="1.1" viewBox="0 0 16 16" xmlns="http://www.w3.org/2000/svg">
 <g fill="#bebebe">
  <path x="1" y="8" width="13" height="1" d="m1.5 8h12a0.5 0.5 45 0 1 0.5 0.5 0.5 0.5 135 0 1-0.5 0.5h-12a0.5 0.5 45 0 1-0.5-0.5 0.5 0.5 135 0 1 0.5-0.5z" fill-rule="evenodd" stroke-linecap="round" stroke-width="2.8284"/>
  <path d="m7.5 0c-0.68752 0-1.276 0.3018-1.7656 0.9043-0.48961 0.60249-0.73438 1.3257-0.73438 2.1719v3.9238h5v-3.9238c0-0.8462-0.24467-1.5693-0.73438-2.1719-0.48951-0.60249-1.0781-0.9043-1.7656-0.9043zm-2.5 8c0 0.8462 0.24486 1.5715 0.73438 2.1738 0.48951 0.60237 1.0781 0.90234 1.7656 0.90234s1.2761-0.29997 1.7656-0.90234c0.48951-0.60237 0.73438-1.3276 0.73438-2.1738h-5z" stroke-width=".10638"/>
  <path d="m3.5 6.1543c-0.13549 0-0.25261 0.059844-0.35156 0.18164-0.098958 0.1218-0.14844 0.26695-0.14844 0.43359v0.23047h1v-0.23047c0-0.16664-0.04948-0.3118-0.14844-0.43359-0.098957-0.1218-0.21607-0.18164-0.35156-0.18164zm8 0c-0.1354 0-0.2526 0.059844-0.35156 0.18164-0.09896 0.1218-0.14844 0.26695-0.14844 0.43359v0.23047h1v-0.23047c0-0.16664-0.04939-0.31168-0.14844-0.43359-0.09877-0.1218-0.21617-0.18164-0.35156-0.18164zm-8.5 1.8457c0 1.4167 0.38418 2.6492 1.1523 3.6973 0.76817 1.048 1.7174 1.649 2.8477 1.8027v1.2695h-2c-0.1354 0-0.2526 0.059846-0.35156 0.18164-0.098957 0.1218-0.14844 0.26695-0.14844 0.43359 0 0.16653 0.04948 0.31192 0.14844 0.43359 0.098958 0.1218 0.21617 0.18164 0.35156 0.18164h5c0.1354 0 0.2528-0.059848 0.35156-0.18164 0.099051-0.12168 0.14844-0.26707 0.14844-0.43359 0-0.16664-0.049379-0.3118-0.14844-0.43359-0.09877-0.1218-0.21617-0.18164-0.35156-0.18164h-2v-1.2695c1.1301-0.15378 2.0794-0.75472 2.8477-1.8027 0.76826-1.048 1.1523-2.2806 1.1523-3.6973h-1c0 1.186-0.3425 2.2-1.0273 3.043-0.68474 0.84302-1.5091 1.2656-2.4727 1.2656s-1.7877-0.42261-2.4727-1.2656c-0.68484-0.84278-1.0273-1.857-1.0273-3.043h-1z" stroke-width=".10638"/>
 </g>
</svg>
